X: 261
T:Bush on the Hill
D:Gerry O'Connor, Myriad, GarryKennedy Set
Z:Alf Warnock - alf0@rogers.com.
R:jig
M:6/8
L:1/8
K:G
|:G,A,G, B,G,B,|DB,D GBg|edB AGA|BGE DB,A,|
G,A,G, B,G,B,|DB,D GBg|edc BcA|BGF G3:|
|:GBd gfg|ece dBG| cBc BdB|ABA AGA |
GBd gfg|ece dBG| cBc BdB|AGF G3:|
